X:1
T: The Northern Meeting
C:
R:Strathspey
Q: 128
K:D
M:4/4
L:1/16
|:d2|AD3 B3D AD3 F4|AD3 B3D AD3 Fd3|AD3 B3D AD3 F4|AF3 d3c B6 d2|
AD3 B3D AD3 F4|AD3 B3D AD3 Fd3|AD3 B3D AD3 F4|AF3 d3c B6 c2|
d3e fb3 c3d ea3|d3e fb3 af3 fb3|d3e fb3 c3d ea3|f3e dc3 B4-B3c|
d3e fb3 c3d ea3|d3e fb3 af3 fb3|fb3 ag3 f3e d3c|BF3 d3c B6:|
